X:5789
T:Gan Ainm
R:jig
S:
H:
N:
D:Milltown 1999 
Z:Adrian Scahill
M:6/8
L:1/8
K:D
FBB B2d|cAc d2B|cAF F2B|AFE E2+AG+|\
FBB B2d|cAc d2e|f3 aec|1 cBA B3:|2 cBA B2e||\
f^ga b3|bc'b baf|ece ab/2a/2^g|aba afe|\
f^ga b3|bc'b baf|ece aec|1 cBA B2e:|2 cBA B2d||\
cec dfd|cee dcB|cAF +F2A2+B|AFE EFA|\
c3 cBA|B3 Bce|f3 aec|cBA B2d:||


